X: 15167
T: Gilbert Riley's
R: jig
M: 6/8
K: Aminor
|:d3 cAc|dcA GAc|dcA GFD|FGF FAc|
d3 cAc|dcA GFD|FAd cAF|GAG G3:|
cAc cdf|gfg afd|cAc cdf|gfd c2A|
cAc cdf|gfg afd|gfd cAc|ded d2 A|
cAc cdf|gfg afd|cAc cdf|gfd c2A|
cAc cdf|gfg afd|gfd g2a|gfd cAc|

